!!!OTL: Yaoshang shanling bupagao
!!!ARE: Asia, China, Fujian Shanghang
!! II, 562, 2)
!!!SCT: C1988
!!!YEM: Copyright 1995, estate of Helmut Schaffrath.
**kern
*ICvox
*Ivox
!! Mixed meters:  2/4; 3/4
*M3/4
*k[f#c#g#d#]
*E:
{8b
4b
16b
16ee
=1
[2ff#
=2
2ff#]
=3
8ff#
16ee
16ff#
16ee
16cc#
4.b}
=4
*M2/4
{8ff#
16ee
16ff#
8ee
16cc#
16b
=5
[2cc#
=6
2cc#]
=7
8ee
16cc#
16ee
8cc#
8b
=8
[2b
=9
4b]
4r}
=10
{8g#
4b
8g#
=11
4b
8b
8b
=12
2b}
=13
{8ff#
16cc#
16ee
8cc#
8b
=14
[2cc#
=15
8cc#]
8ff#
8cc#
8b
=16
8.b
16b
16cc#
16ee
8cc#
=17
[2b
=18
4b]
4r}
==
!!!AGN: Shange, Gutianshange
!!!AMT: irregular
!!!AIN: vox
!!!EED: Helmut Schaffrath
!!!EEV: 1.0
*-
!!!ONB: Tied note syntax fixed by Craig Sapp, 2004/05/03/
